images/sparkbox.svg

<?xml version="1.0" encoding="UTF-8" standalone="no"?>
<svg width="55px" height="55px" viewBox="0 0 55 55" version="1.1" xmlns="http://www.w3.org/2000/svg">
    <path d="M9.492,54.035 L20.005,34.081 L23.528,34.196 L18.03,45.103 L39.246,29.058 L0.525,29.058 C0.525,29.058 0.16,29.095 0.04,28.697 C-0.108,28.236 0.208,28.026 0.208,28.026 L38.836,0.155 C38.836,0.155 39.18,-0.132 39.508,0.076 C39.827,0.271 39.687,0.615 39.687,0.615 L29.319,21.465 L25.596,21.627 L31.683,9.471 L8.452,25.982 L47.431,25.982 C47.431,25.982 47.838,25.988 47.973,26.362 C48.086,26.671 47.815,26.955 47.815,26.955 L10.345,54.568 C10.345,54.568 10.005,54.837 9.679,54.604 C9.327,54.346 9.492,54.035 9.492,54.035 L9.492,54.035 Z" fill="#8C8C8C"></path>
    <path d="M10.227,22.032 L10.227,10.804 L28.313,10.804 L32.84,7.733 L7.489,7.733 C7.19,7.733 7.159,8.052 7.159,8.052 L7.159,24.156 L10.227,22.032 L10.227,22.032 Z M36.067,10.804 C38.043,10.804 39.649,12.923 39.649,14.891 C39.649,16.875 38.042,18.986 36.067,18.986 L27.182,18.986 L25.596,21.629 C25.596,21.629 25.375,22.055 25.823,22.055 L36.068,22.055 C39.75,22.055 42.727,18.571 42.727,14.892 C42.727,11.226 39.748,7.733 36.068,7.733 L33.061,7.733 L32.383,10.804 L36.067,10.804 L36.067,10.804 Z M33.095,7.557 L32.841,7.732 L33.061,7.732 L33.095,7.557 L33.095,7.557 Z M36.067,33.446 L33.795,33.446 L29.585,36.518 L36.068,36.518 C38.044,36.518 39.651,38.631 39.651,40.606 C39.651,42.584 38.043,44.697 36.068,44.697 L19.474,44.697 L15.366,47.768 L36.068,47.768 C39.75,47.768 42.727,44.825 42.727,41.15 C42.727,37.47 39.748,33.446 36.067,33.446 L36.067,33.446 Z M14.297,47.555 L15.365,46.749 L14.676,46.749 L14.297,47.555 L14.297,47.555 Z M10.317,44.698 L10.317,36.518 L22.132,36.518 L23.659,33.951 C23.659,33.951 23.826,33.701 23.701,33.549 C23.605,33.443 23.33,33.446 23.33,33.446 L7.72,33.446 C7.256,33.446 7.244,33.909 7.244,33.909 L7.244,47.433 C7.244,47.433 7.324,47.769 7.686,47.769 L14.676,47.769 L16.131,44.698 L10.317,44.698 L10.317,44.698 Z" fill="#8C8C8C"></path>
</svg>

<svg xmlns="http://www.w3.org/2000/svg" viewBox="0 0 55 55"><path fill="#8C8C8C" d="M9.5 54 20 34l3.5.2L18 45.1l21.2-16H.5s-.3 0-.5-.4c-.1-.5.2-.7.2-.7L38.8.2s.4-.3.7-.1c.3.2.2.5.2.5L29.3 21.5l-3.7.1 6-12.1L8.6 26h39s.3 0 .5.4l-.2.6-37.5 27.6s-.3.2-.6 0c-.4-.3-.2-.6-.2-.6Z"/><path fill="#8C8C8C" d="M10.2 22V10.8h18.1l4.5-3H7.5c-.3 0-.3.3-.3.3v16l3-2Zm25.9-11.2c2 0 3.5 2.1 3.5 4 0 2-1.6 4.2-3.5 4.2h-9l-1.5 2.6s-.2.5.2.5h10.3c3.6 0 6.6-3.5 6.6-7.2s-3-7.2-6.6-7.2h-3l-.7 3.1H36Zm-3-3.2-.3.1h.3v-.1Zm3 25.8h-2.3l-4.2 3.1H36c2 0 3.6 2.1 3.6 4.1 0 2-1.7 4.1-3.6 4.1H19.5l-4.1 3H36c3.6 0 6.6-2.9 6.6-6.6 0-3.6-3-7.7-6.6-7.7ZM14.3 47.6l1-.9h-.6l-.4.9Zm-4-2.9v-8.2h11.8l1.6-2.5v-.5h-16c-.4 0-.5.4-.5.4v13.5s.1.4.5.4h7l1.4-3.1h-5.8Z"/></svg>
